X:109
T: Green Grows the Rashes
T: Green Grow the Rushes
N: O'Farrell's Pocket Companion v.2 (Sky ed. p.61)
M: C
L: 1/8
R: hornpipe
Q: 300
K: Em
A|G/G/G B>A BGGB|A/A/A e>d eAAB|cege d/c/B/A/ GB|
A/B/c BA GEE :|A|G/G/G gf gddg|e/e/e ag aee>f|
g>age d/c/B/A/ GB|A/B/c BA GEEA|G/G/G gf gddg|e/e/e ag aeef|
gbeg d/c/B/A/ GB|A/B/c BA GEE :|
